X:1
T:Lead Me to Calvary
T:Lead Me to Calvary
T:William James Kirkpatrick
T:Jennie Evelyn Hussey, 1921
T:Public Domain Courtesy of the Cyber Hymnal™
C:William James Kirkpatrick
Z:Public Domain
Z:Courtesy of the Cyber Hymnal™
%%score ( 1 2 ) ( 3 4 )
L:1/8
Q:1/4=110
M:4/4
K:Eb
V:1 treble 
V:2 treble 
V:3 bass 
V:4 bass 
V:1
 [EG]2 [EG]>[DF] E2 E2 | [EA]2 [EA]2 [EG]4 | [EG]2 [DF]>E [EB]2 [EG]2 | [DF]8 | %4
w: 1.~King of my life, I|crown Thee now,|Thine shall the glor- y|be;|
w: 2.~Show me the tomb where|Thou wast laid,|Ten- der- ly mourned and|wept;|
w: 3.~Let me like Mar- y,|through the gloom,|Come with a gift to|Thee;|
w: 4.~May I be will- ing,|Lord, to bear|Dail- y my cross for|Thee;|
 [EG]2 [EG]>[DF] E2 E2 | [Ec]2 [Ec]2 [EB]4 | E2 E>[EF] [EG]2 [DF]2 | E8 || %8
w: Lest I for- get Thy|thorn crowned brow,|Lead me to Cal- va-|ry.|
w: An- gels in robes of|light ar- rayed|Guard- ed Thee whilst Thou|slept.|
w: Show to me now the|emp- ty tomb,|Lead me to Cal- va-|ry.|
w: Ev- en Thy cup of|grief to share,|Thou hast borne all for|me.|
"^Refrain" [DF]2 [DF]>[EG] [FA]2 [Ac]2 | [GB]3 [FA] [EG]4 | [DF]2 [DF]>[DG] [DA]2 [Ac]2 | %11
w: |||
w: |||
w: Lest I for- get Geth-|sem- a- ne,|Lest I for- get Thine|
w: |||
 [GB]3 [FA] [EG]4 | [Ge]2 [Ge]>[Ge] [Fd]2 [Fd]2 | [Ec]2 [^Fc]2 [GB]4 | E2 E>[EF] [EG]2 [DF]2 | %15
w: ||||
w: ||||
w: a- go- ny;|Lest I for- get Thy|love for me,|Lead me to Cal- va-|
w: ||||
 E8 |] %16
w: |
w: |
w: ry.|
w: |
V:2
 x4 E2 E2 | x8 | x8 | x8 | x4 E2 E2 | x8 | E2 E3/2 x9/2 | E8 || x8 | x8 | x8 | x8 | x8 | x8 | %14
 E2 E3/2 x9/2 | E8 |] %16
V:3
 [E,B,]2 [E,B,]>[E,A,] [E,G,]2 [E,G,]2 | [A,,C]2 [A,,C]2 [E,B,]4 | %2
 [E,B,]2 [E,A,]>[E,G,] [G,B,]2 [E,B,]2 | (z2 [G,B,]2 [F,B,]4) | %4
 [E,B,]2 [E,B,]>[F,B,] [G,B,]2 [E,G,]2 | [A,,A,]2 [A,,A,]2 [E,G,]4 | %6
 [G,B,]2 [G,B,]>[A,C] B,2 [B,,A,]2 | [E,G,]8 || [B,,B,]2 [B,,B,]>[B,,B,] [B,,B,]2 [B,,B,]2 | %9
 [E,B,]3 [E,B,] [E,B,]4 | [B,,B,]2 [A,B,]>[G,B,] [F,B,]2 [B,,D]2 | [E,E]3 [E,B,] [E,B,]4 | %12
 [C,C]2 [C,C]>[C,C] [G,=B,]2 [G,B,]2 | [A,C]2 [A,E]2 [E,E]4 | [G,B,]2 [G,B,]>[A,C] B,2 [B,,A,]2 | %15
 [E,G,]8 |] %16
V:4
 x8 | x8 | x8 | B,,8 | x8 | x8 | x4 B,2 x2 | x8 || x8 | x8 | x8 | x8 | x8 | x8 | x4 B,2 x2 | x8 |] %16

